outputs/icons/editor/align_horizontal_left_round.svg

<svg xmlns="http://www.w3.org/2000/svg" width="1200" height="1200" fill="none"><g clip-path="url(#a)"><path fill="#000" d="M150 1100c-27.5 0-50-22.5-50-50V150c0-27.5 22.5-50 50-50s50 22.5 50 50v900c0 27.5-22.5 50-50 50m875-750H375c-41.5 0-75 33.5-75 75s33.5 75 75 75h650c41.5 0 75-33.5 75-75s-33.5-75-75-75M725 700H375c-41.5 0-75 33.5-75 75s33.5 75 75 75h350c41.5 0 75-33.5 75-75s-33.5-75-75-75"/></g><defs><clipPath id="a"><path fill="#fff" d="M0 0h1200v1200H0z"/></clipPath></defs></svg>

<svg width="1200" height="1200" viewBox="0 0 1200 1200" fill="none" xmlns="http://www.w3.org/2000/svg"><g clip-path="url(#clip0_238_245)"><path d="M150 1100C122.5 1100 100 1077.5 100 1050V150C100 122.5 122.5 100 150 100C177.5 100 200 122.5 200 150V1050C200 1077.5 177.5 1100 150 1100ZM1025 350H375C333.5 350 300 383.5 300 425C300 466.5 333.5 500 375 500H1025C1066.5 500 1100 466.5 1100 425C1100 383.5 1066.5 350 1025 350ZM725 700H375C333.5 700 300 733.5 300 775C300 816.5 333.5 850 375 850H725C766.5 850 800 816.5 800 775C800 733.5 766.5 700 725 700Z" fill="black"/></g><defs><clipPath id="clip0_238_245"><path width="24" fill="white" d="M0 0H1200V1200H0V0z"/></clipPath></defs></svg>
